X: 133031
Q: "Scotch Jig."
M: 6/8
L: 1/8
K: G
uD |\
|: vA/B/ |\
c>dc c>AF | vd2vB d>BG | e2c d>BG | (F<A)A A2B |\
c>dc c>AF | d2B d>BG | e>fg B>cA | G<GG G2 :|
|: vB/c/ |\
d>BG uD2uB | c>AF D2c | B>GB c>Ac | B>GB A>Bc |\
d>BG D2B | c>AF D2c | B>GB c>Ac | B>cA G2 :|



